packages/icons/raw/imported/GenericShareIos.svg

<svg width="32" height="32" viewBox="0 0 32 32" fill="none" xmlns="http://www.w3.org/2000/svg">
<path d="M16 17.5L16 5M16 5L12.6316 8M16 5L19.3684 8" stroke="black" stroke-linecap="round" stroke-linejoin="round"/>
<path d="M12.8 10.8334H10C8.89543 10.8334 8 11.7288 8 12.8334V23C8 24.1046 8.89543 25 10 25H22C23.1046 25 24 24.1046 24 23V12.8334C24 11.7288 23.1046 10.8334 22 10.8334H19.2" stroke="black" stroke-linecap="round"/>
</svg>

<svg width="32" height="32" fill="none" xmlns="http://www.w3.org/2000/svg"><path d="M16 17.5V5m0 0-3.368 3M16 5l3.368 3" stroke="#000" stroke-linecap="round" stroke-linejoin="round"/><path d="M12.8 10.833H10a2 2 0 0 0-2 2V23a2 2 0 0 0 2 2h12a2 2 0 0 0 2-2V12.833a2 2 0 0 0-2-2h-2.8" stroke="#000" stroke-linecap="round"/></svg>
